22x22/mimetypes/application-dxf.svg

<svg xmlns="http://www.w3.org/2000/svg" width="22" height="22" version="1.1">
 <path style="opacity:0.2" d="M 4,1.5 C 3.446,1.5 3,1.946 3,2.5 V 20.5 C 3,21.054 3.446,21.5 4,21.5 H 18 C 18.554,21.5 19,21.054 19,20.5 V 7.5 L 13.5,7 13,1.5 Z"/>
 <path style="fill:#ec4646" d="M 4,1 C 3.446,1 3,1.446 3,2 V 20 C 3,20.554 3.446,21 4,21 H 18 C 18.554,21 19,20.554 19,20 V 7 L 13.5,6.5 13,1 Z"/>
 <path style="opacity:0.2;fill:#f4f4f7" d="M 4,1 C 3.446,1 3,1.446 3,2 V 2.5 C 3,1.946 3.446,1.5 4,1.5 H 13 V 1 Z"/>
 <path style="opacity:0.2" d="M 13,1.5 V 6.5 C 13,7.0525 13.448,7.5 14,7.5 H 19 Z"/>
 <path style="fill:#f17575" d="M 13,1 V 6 C 13,6.5525 13.448,7 14,7 H 19 Z"/>
 <path style="opacity:0.2" d="M 7,1.5 V 13.5 H 4 V 16.5 H 3 V 17.5 H 4 V 20.5 H 7 V 21 H 8 V 20.5 H 11 V 17.5 H 19 V 16.5 H 11 V 13.5 H 8 V 1.5 Z M 5,14.5 H 10 V 19.5 H 5 Z M 7,16.5 V 17.5 H 8 V 16.5 Z"/>
 <path style="fill:#f4f4f7" d="M 7,1 V 13 H 4 V 16 H 3 V 17 H 4 V 20 H 7 V 21 H 8 V 20 H 11 V 17 H 19 V 16 H 11 V 13 H 8 V 1 Z M 5,14 H 10 V 19 H 5 Z M 7,16 V 17 H 8 V 16 Z"/>
</svg>

<svg xmlns="http://www.w3.org/2000/svg" width="22" height="22"><path style="opacity:.2" d="M4 1.5c-.554 0-1 .446-1 1v18c0 .554.446 1 1 1h14c.554 0 1-.446 1-1v-13L13.5 7 13 1.5z"/><path style="fill:#ec4646" d="M4 1c-.554 0-1 .446-1 1v18c0 .554.446 1 1 1h14c.554 0 1-.446 1-1V7l-5.5-.5L13 1z"/><path style="opacity:.2;fill:#f4f4f7" d="M4 1c-.554 0-1 .446-1 1v.5c0-.554.446-1 1-1h9V1z"/><path style="opacity:.2" d="M13 1.5v5a1 1 0 0 0 1 1h5z"/><path style="fill:#f17575" d="M13 1v5a1 1 0 0 0 1 1h5z"/><path style="opacity:.2" d="M7 1.5v12H4v3H3v1h1v3h3v.5h1v-.5h3v-3h8v-1h-8v-3H8v-12zm-2 13h5v5H5zm2 2v1h1v-1z"/><path style="fill:#f4f4f7" d="M7 1v12H4v3H3v1h1v3h3v1h1v-1h3v-3h8v-1h-8v-3H8V1zM5 14h5v5H5zm2 2v1h1v-1z"/></svg>
